X: 10891
Q: "Moderate."
M: C
L: 1/8
K: Bb
f3e d2B2 | (cd)(ec) B2z2 | A2BB {cd}e3d | (d4 {ed}c2)zB |\
f3e d2B2 | (cd)(ec) B2 (b/a/b/g/) | f3g B2A2 | B4 z2zd |
(ed)(ef) g2(fe) | (dc)(de) f2zd | e3c d2(fd) | (Hd2{ed}Hc2) z2(Bc) |\
(dB)(ec) f3d | (gf)(ed) (d2{ed}c)f | Hb2 (B/c/d/e/) d2c2 | B4 z2 |]


